X:172
T:Rokeby Park. VWMLa.172
%%VWML:Anon2-3049-p107-0
F:http://www.vwml.org/record/Anon2/3049/p107
S:Anon. MS, late 18thC, Vaughan Williams Mem. Library
O:England;Yorkshire
Z:vmp/efdss.Simon Wilson. Reviewed PJH 2008.
M:6/8
L:1/8
Q:3/8=100
K:A
E|A2a a2e|!turn!f3 e2f|edc BAG|AED CB,A,|\
A2a a2e|!turn!f3 e2f|edc BAG|A3A,2:|
|:e|faf eae|dad cac|Bag agf|edc BAG|\
faf eae|dad c2a/g/|aed cdB|A3A,2:|
K:C
|:"^Minore"P"B|\
c2c ABc|!turn!(BAB) E2B|c2c ABc|(B3 e2)B|\
c2c ABc|!turn!(BAB) e2a/^g/|aed cdB|A3 A,2:|
